Catalina-dark/actions/22/view-certificate-export-secret.svg

<?xml version="1.0" encoding="UTF-8" standalone="no"?>
<svg
   xmlns:dc="http://purl.org/dc/elements/1.1/"
   xmlns:cc="http://creativecommons.org/ns#"
   xmlns:rdf="http://www.w3.org/1999/02/22-rdf-syntax-ns#"
   xmlns:svg="http://www.w3.org/2000/svg"
   xmlns="http://www.w3.org/2000/svg"
   xmlns:sodipodi="http://sodipodi.sourceforge.net/DTD/sodipodi-0.dtd"
   xmlns:inkscape="http://www.inkscape.org/namespaces/inkscape"
   viewBox="0 0 22 22"
   id="svg3313"
   version="1.1"
   inkscape:version="0.91 r13725"
   sodipodi:docname="view-certificate-export-secret.svg">
  <metadata
     id="metadata3321">
    <rdf:RDF>
      <cc:Work
         rdf:about="">
        <dc:format>image/svg+xml</dc:format>
        <dc:type
           rdf:resource="http://purl.org/dc/dcmitype/StillImage" />
      </cc:Work>
    </rdf:RDF>
  </metadata>
  <sodipodi:namedview
     pagecolor="#ffffff"
     bordercolor="#666666"
     borderopacity="1"
     objecttolerance="10"
     gridtolerance="10"
     guidetolerance="10"
     inkscape:pageopacity="0"
     inkscape:pageshadow="2"
     inkscape:window-width="640"
     inkscape:window-height="480"
     id="namedview3319"
     showgrid="false"
     inkscape:zoom="28.954545"
     inkscape:cx="4.8524333"
     inkscape:cy="11"
     inkscape:current-layer="svg3313" />
  <defs
     id="defs3051">
    <style
       type="text/css"
       id="current-color-scheme">
      .ColorScheme-Text {
        color:#f2f2f2
      }
      </style>
  </defs>
  <path
     style="color:#f2f2f2;fill:currentColor;fill-opacity:1;stroke:none"
     class="ColorScheme-Text"
     d="M 3.567432,4.2 C 3.252664,4.2 3,4.469424 3,4.80312 L 3,16.396872 C 3,16.730576 3.252664,17 3.567432,17 L 18.43256,17 C 18.747336,17 19,16.730576 19,16.396872 L 19,4.80312 C 19,4.469424 18.747352,4.2 18.43256,4.2 L 3.567432,4.2 Z M 9.71628,7.8 c 0.919504,0 1.662496,0.787688 1.662496,1.762496 0,0.974808 -0.742992,1.764064 -1.662496,1.764064 -0.215184,0 -0.410504,-0.04248 -0.586584,-0.104688 l -0.879864,0.934376 -0.588072,0 0,0.621872 -0.5866,0 0,0.62188 -0.978624,0 0,-1.037504 2.054544,-2.17656 C 8.09236,9.978528 8.0538,9.769904 8.0538,9.562496 8.0538,8.587688 8.796792,7.8 9.71628,7.8 Z m 4.611632,0.440624 c 0.762808,0 1.383952,0.656952 1.383952,1.465624 l 0,0.596872 c 0.109024,0.02424 0.191592,0.125768 0.191592,0.24844 l 0,2.232816 c 0,0.14064 -0.109024,0.256248 -0.241696,0.256248 l -2.66764,0 c -0.132696,0 -0.24024,-0.115608 -0.24024,-0.256248 l 0,-2.232816 c 0,-0.122672 0.08258,-0.224288 0.1916,-0.24844 l 0,-0.596872 c 0,-0.808672 0.619664,-1.465624 1.382448,-1.465624 z M 10.2056,8.421872 c -0.332584,0 -0.586584,0.26928 -0.586584,0.621872 0,0.3526 0.254,0.62344 0.586584,0.62344 0.3326,0 0.5866,-0.27084 0.5866,-0.62344 0,-0.352592 -0.254,-0.621872 -0.5866,-0.621872 z M 14.327912,8.75 c -0.497424,0 -0.901976,0.428904 -0.901976,0.956248 l 0,0.590624 1.803976,0 0,-0.590624 c 0,-0.52732 -0.404552,-0.956248 -0.902,-0.956248 z"
     id="path3317"
     inkscape:connector-curvature="0" />
</svg>

<svg version="1.1" viewBox="0 0 22 22" xmlns="http://www.w3.org/2000/svg">
<defs>
<style id="current-color-scheme" type="text/css">.ColorScheme-Text {
        color:#dedede
      }</style>
</defs>
<path class="ColorScheme-Text" d="m3.5674 4.2c-0.31477 0-0.56743 0.26942-0.56743 0.60312v11.594c0 0.3337 0.25266 0.60313 0.56743 0.60313h14.865c0.31478 0 0.56744-0.26942 0.56744-0.60313v-11.594c0-0.3337-0.25265-0.60312-0.56744-0.60312h-14.865zm6.1488 3.6c0.9195 0 1.6625 0.78769 1.6625 1.7625s-0.74299 1.7641-1.6625 1.7641c-0.21518 0-0.4105-0.04248-0.58658-0.10469l-0.87986 0.93438h-0.58807v0.62187h-0.5866v0.62188h-0.97862v-1.0375l2.0545-2.1766c-0.05872-0.20741-0.09728-0.41603-0.09728-0.62344 0-0.97481 0.74299-1.7625 1.6625-1.7625zm4.6116 0.44062c0.76281 0 1.384 0.65695 1.384 1.4656v0.59687c0.10902 0.02424 0.19159 0.12577 0.19159 0.24844v2.2328c0 0.14064-0.10902 0.25625-0.2417 0.25625h-2.6676c-0.1327 0-0.24024-0.11561-0.24024-0.25625v-2.2328c0-0.12267 0.08258-0.22429 0.1916-0.24844v-0.59687c0-0.80867 0.61966-1.4656 1.3824-1.4656zm-4.1223 0.18125c-0.33258 0-0.58658 0.26928-0.58658 0.62187 0 0.3526 0.254 0.62344 0.58658 0.62344 0.3326 0 0.5866-0.27084 0.5866-0.62344 0-0.35259-0.254-0.62187-0.5866-0.62187zm4.1223 0.32813c-0.49742 0-0.90198 0.4289-0.90198 0.95625v0.59062h1.804v-0.59062c0-0.52732-0.40455-0.95625-0.902-0.95625z" color="#dedede" fill="currentColor"/>
</svg>
